X:1
T:The Nine Points of Roguery
M:C
L:1/8
R:reel
O:Ireland
K:D
FE | "D" D2 (3(FED) "A" ADFE | "D" DEFG ABAF | "D" D2 (3(FED) "A" GEFA
| "G" BEED "A" D2 FE |
 "D" D2 (3(FED) "A" ADFE | "D" DEFG ABAF | "D" D2 FA "A" GABc
| "D" d3 e d2 :|
AB | "C" =c3 A "G" B3 G | "D" A2 AB AGFE | "D" D2 (3(FED) "A" GEFA
| "G" BEED "A" E2 AB |
 "C" =c3 A "G" B3 G | "D" Adcd fdAF | "D" D2 FA "A" GABc
| "D" d3 e d2 :|
